images/Chk1N72.svg

<?xml version="1.0" encoding="UTF-8"?>
<svg xmlns="http://www.w3.org/2000/svg" xmlns:xlink="http://www.w3.org/1999/xlink" width="300pt" height="300pt" viewBox="0 0 300 300" version="1.1">
<defs>
<g>
<symbol overflow="visible" id="glyph0-0">
<path style="stroke:none;" d="M 0.453125 1.59375 L 0.453125 -6.34375 L 4.953125 -6.34375 L 4.953125 1.59375 Z M 0.953125 1.09375 L 4.453125 1.09375 L 4.453125 -5.84375 L 0.953125 -5.84375 Z M 0.953125 1.09375 "/>
</symbol>
<symbol overflow="visible" id="glyph0-1">
<path style="stroke:none;" d="M 3.546875 -5.953125 C 2.898438 -5.953125 2.382812 -5.710938 2 -5.234375 C 1.625 -4.753906 1.4375 -4.101562 1.4375 -3.28125 C 1.4375 -2.445312 1.625 -1.789062 2 -1.3125 C 2.382812 -0.832031 2.898438 -0.59375 3.546875 -0.59375 C 4.191406 -0.59375 4.703125 -0.832031 5.078125 -1.3125 C 5.453125 -1.789062 5.640625 -2.445312 5.640625 -3.28125 C 5.640625 -4.101562 5.453125 -4.753906 5.078125 -5.234375 C 4.703125 -5.710938 4.191406 -5.953125 3.546875 -5.953125 Z M 3.546875 -6.6875 C 4.460938 -6.6875 5.195312 -6.375 5.75 -5.75 C 6.300781 -5.132812 6.578125 -4.3125 6.578125 -3.28125 C 6.578125 -2.238281 6.300781 -1.410156 5.75 -0.796875 C 5.195312 -0.179688 4.460938 0.125 3.546875 0.125 C 2.617188 0.125 1.878906 -0.179688 1.328125 -0.796875 C 0.773438 -1.410156 0.5 -2.238281 0.5 -3.28125 C 0.5 -4.3125 0.773438 -5.132812 1.328125 -5.75 C 1.878906 -6.375 2.617188 -6.6875 3.546875 -6.6875 Z M 3.546875 -6.6875 "/>
</symbol>
<symbol overflow="visible" id="glyph0-2">
<path style="stroke:none;" d="M 0.890625 -6.5625 L 2.078125 -6.5625 L 4.984375 -1.078125 L 4.984375 -6.5625 L 5.84375 -6.5625 L 5.84375 0 L 4.65625 0 L 1.75 -5.484375 L 1.75 0 L 0.890625 0 Z M 0.890625 -6.5625 "/>
</symbol>
<symbol overflow="visible" id="glyph0-3">
<path style="stroke:none;" d="M 0.890625 -6.5625 L 1.765625 -6.5625 L 1.765625 -3.875 L 5 -3.875 L 5 -6.5625 L 5.890625 -6.5625 L 5.890625 0 L 5 0 L 5 -3.125 L 1.765625 -3.125 L 1.765625 0 L 0.890625 0 Z M 0.890625 -6.5625 "/>
</symbol>
</g>
</defs>
<g id="surface157">
<rect x="0" y="0" width="300" height="300" style="fill:rgb(100%,100%,100%);fill-opacity:1;stroke:none;"/>
<path style="fill:none;stroke-width:1.2;stroke-linecap:butt;stroke-linejoin:miter;stroke:rgb(100%,0%,0%);stroke-opacity:1;stroke-miterlimit:10;" d="M 147.429688 140.355469 L 148.078125 151.273438 "/>
<path style="fill:none;stroke-width:1.2;stroke-linecap:butt;stroke-linejoin:miter;stroke:rgb(0%,0%,0%);stroke-opacity:1;stroke-miterlimit:10;" d="M 148.078125 151.273438 L 148.726562 162.191406 "/>
<path style="fill:none;stroke-width:1.2;stroke-linecap:butt;stroke-linejoin:miter;stroke:rgb(100%,0%,0%);stroke-opacity:1;stroke-miterlimit:10;" d="M 152.570312 140.050781 L 153.214844 150.96875 "/>
<path style="fill:none;stroke-width:1.2;stroke-linecap:butt;stroke-linejoin:miter;stroke:rgb(0%,0%,0%);stroke-opacity:1;stroke-miterlimit:10;" d="M 153.214844 150.96875 L 153.863281 161.886719 "/>
<path style=" stroke:none;fill-rule:nonzero;fill:rgb(100%,100%,100%);fill-opacity:1;" d="M 146 134.703125 L 154 134.703125 L 154 145.703125 L 146 145.703125 Z M 146 134.703125 "/>
<g style="fill:rgb(100%,0%,0%);fill-opacity:1;">
  <use xlink:href="#glyph0-1" x="146" y="143.366211"/>
</g>
<path style="fill:none;stroke-width:1.2;stroke-linecap:butt;stroke-linejoin:miter;stroke:rgb(0%,0%,0%);stroke-opacity:1;stroke-miterlimit:10;" d="M 151.292969 162.039062 L 142.164062 168.058594 "/>
<path style="fill:none;stroke-width:1.2;stroke-linecap:butt;stroke-linejoin:miter;stroke:rgb(0%,0%,100%);stroke-opacity:1;stroke-miterlimit:10;" d="M 142.164062 168.058594 L 133.03125 174.078125 "/>
<path style="fill:none;stroke-width:1.2;stroke-linecap:butt;stroke-linejoin:miter;stroke:rgb(0%,0%,0%);stroke-opacity:1;stroke-miterlimit:10;" d="M 151.292969 162.039062 L 161.074219 166.9375 "/>
<path style="fill:none;stroke-width:1.2;stroke-linecap:butt;stroke-linejoin:miter;stroke:rgb(0%,0%,100%);stroke-opacity:1;stroke-miterlimit:10;" d="M 161.074219 166.9375 L 170.851562 171.835938 "/>
<path style="fill:none;stroke-width:1.2;stroke-linecap:butt;stroke-linejoin:miter;stroke:rgb(0%,0%,100%);stroke-opacity:1;stroke-miterlimit:10;" d="M 133.03125 174.078125 L 123.253906 169.179688 "/>
<path style="fill:none;stroke-width:1.2;stroke-linecap:butt;stroke-linejoin:miter;stroke:rgb(0%,0%,0%);stroke-opacity:1;stroke-miterlimit:10;" d="M 123.253906 169.179688 L 113.476562 164.28125 "/>
<path style=" stroke:none;fill-rule:nonzero;fill:rgb(100%,100%,100%);fill-opacity:1;" d="M 126.03125 168.578125 L 140.03125 168.578125 L 140.03125 179.578125 L 126.03125 179.578125 Z M 126.03125 168.578125 "/>
<g style="fill:rgb(0%,0%,100%);fill-opacity:1;">
  <use xlink:href="#glyph0-2" x="126.03125" y="177.241211"/>
  <use xlink:href="#glyph0-3" x="133.008789" y="177.241211"/>
</g>
<path style="fill:none;stroke-width:1.2;stroke-linecap:butt;stroke-linejoin:miter;stroke:rgb(0%,0%,0%);stroke-opacity:1;stroke-miterlimit:10;" d="M 113.476562 164.28125 L 112.179688 142.445312 "/>
<path style="fill:none;stroke-width:1.2;stroke-linecap:butt;stroke-linejoin:miter;stroke:rgb(0%,0%,0%);stroke-opacity:1;stroke-miterlimit:10;" d="M 108.210938 162.402344 L 107.171875 144.933594 "/>
<path style="fill:none;stroke-width:1.2;stroke-linecap:butt;stroke-linejoin:miter;stroke:rgb(0%,0%,100%);stroke-opacity:1;stroke-miterlimit:10;" d="M 95.214844 176.320312 L 104.34375 170.300781 "/>
<path style="fill:none;stroke-width:1.2;stroke-linecap:butt;stroke-linejoin:miter;stroke:rgb(0%,0%,0%);stroke-opacity:1;stroke-miterlimit:10;" d="M 104.34375 170.300781 L 113.476562 164.28125 "/>
<path style="fill:none;stroke-width:1.2;stroke-linecap:butt;stroke-linejoin:miter;stroke:rgb(0%,0%,0%);stroke-opacity:1;stroke-miterlimit:10;" d="M 112.179688 142.445312 L 102.402344 137.546875 "/>
<path style="fill:none;stroke-width:1.2;stroke-linecap:butt;stroke-linejoin:miter;stroke:rgb(0%,0%,100%);stroke-opacity:1;stroke-miterlimit:10;" d="M 102.402344 137.546875 L 92.625 132.652344 "/>
<path style="fill:none;stroke-width:1.2;stroke-linecap:butt;stroke-linejoin:miter;stroke:rgb(0%,0%,100%);stroke-opacity:1;stroke-miterlimit:10;" d="M 92.625 132.652344 L 83.492188 138.667969 "/>
<path style="fill:none;stroke-width:1.2;stroke-linecap:butt;stroke-linejoin:miter;stroke:rgb(0%,0%,0%);stroke-opacity:1;stroke-miterlimit:10;" d="M 83.492188 138.667969 L 74.363281 144.6875 "/>
<path style="fill:none;stroke-width:1.2;stroke-linecap:butt;stroke-linejoin:miter;stroke:rgb(0%,0%,100%);stroke-opacity:1;stroke-miterlimit:10;" d="M 93.632812 138.152344 L 86.328125 142.964844 "/>
<path style="fill:none;stroke-width:1.2;stroke-linecap:butt;stroke-linejoin:miter;stroke:rgb(0%,0%,0%);stroke-opacity:1;stroke-miterlimit:10;" d="M 86.328125 142.964844 L 79.023438 147.78125 "/>
<path style=" stroke:none;fill-rule:nonzero;fill:rgb(100%,100%,100%);fill-opacity:1;" d="M 89.625 127.152344 L 96.625 127.152344 L 96.625 138.152344 L 89.625 138.152344 Z M 89.625 127.152344 "/>
<g style="fill:rgb(0%,0%,100%);fill-opacity:1;">
  <use xlink:href="#glyph0-2" x="89.625" y="135.81543"/>
</g>
<path style="fill:none;stroke-width:1.2;stroke-linecap:butt;stroke-linejoin:miter;stroke:rgb(0%,0%,0%);stroke-opacity:1;stroke-miterlimit:10;" d="M 74.363281 144.6875 L 75.65625 166.523438 "/>
<path style="fill:none;stroke-width:1.2;stroke-linecap:butt;stroke-linejoin:miter;stroke:rgb(0%,0%,0%);stroke-opacity:1;stroke-miterlimit:10;" d="M 74.363281 144.6875 L 54.804688 134.894531 "/>
<path style="fill:none;stroke-width:1.2;stroke-linecap:butt;stroke-linejoin:miter;stroke:rgb(0%,0%,0%);stroke-opacity:1;stroke-miterlimit:10;" d="M 75.65625 166.523438 L 85.4375 171.421875 "/>
<path style="fill:none;stroke-width:1.2;stroke-linecap:butt;stroke-linejoin:miter;stroke:rgb(0%,0%,100%);stroke-opacity:1;stroke-miterlimit:10;" d="M 85.4375 171.421875 L 95.214844 176.320312 "/>
<path style="fill:none;stroke-width:1.2;stroke-linecap:butt;stroke-linejoin:miter;stroke:rgb(0%,0%,0%);stroke-opacity:1;stroke-miterlimit:10;" d="M 79.917969 162.902344 L 87.742188 166.820312 "/>
<path style="fill:none;stroke-width:1.2;stroke-linecap:butt;stroke-linejoin:miter;stroke:rgb(0%,0%,100%);stroke-opacity:1;stroke-miterlimit:10;" d="M 87.742188 166.820312 L 95.5625 170.738281 "/>
<path style=" stroke:none;fill-rule:nonzero;fill:rgb(100%,100%,100%);fill-opacity:1;" d="M 92.214844 170.820312 L 99.214844 170.820312 L 99.214844 181.820312 L 92.214844 181.820312 Z M 92.214844 170.820312 "/>
<g style="fill:rgb(0%,0%,100%);fill-opacity:1;">
  <use xlink:href="#glyph0-2" x="92.214844" y="179.483398"/>
</g>
<path style="fill:none;stroke-width:1.2;stroke-linecap:butt;stroke-linejoin:miter;stroke:rgb(0%,0%,0%);stroke-opacity:1;stroke-miterlimit:10;" d="M 54.804688 134.894531 L 45.027344 129.996094 "/>
<path style="fill:none;stroke-width:1.2;stroke-linecap:butt;stroke-linejoin:miter;stroke:rgb(0%,0%,100%);stroke-opacity:1;stroke-miterlimit:10;" d="M 45.027344 129.996094 L 35.25 125.097656 "/>
<path style="fill:none;stroke-width:1.2;stroke-linecap:butt;stroke-linejoin:miter;stroke:rgb(0%,0%,0%);stroke-opacity:1;stroke-miterlimit:10;" d="M 55.15625 129.3125 L 47.332031 125.394531 "/>
<path style="fill:none;stroke-width:1.2;stroke-linecap:butt;stroke-linejoin:miter;stroke:rgb(0%,0%,100%);stroke-opacity:1;stroke-miterlimit:10;" d="M 47.332031 125.394531 L 39.511719 121.476562 "/>
<path style="fill:none;stroke-width:1.2;stroke-linecap:butt;stroke-linejoin:miter;stroke:rgb(0%,0%,0%);stroke-opacity:1;stroke-miterlimit:10;" d="M 50.546875 138.515625 L 42.722656 134.597656 "/>
<path style="fill:none;stroke-width:1.2;stroke-linecap:butt;stroke-linejoin:miter;stroke:rgb(0%,0%,100%);stroke-opacity:1;stroke-miterlimit:10;" d="M 42.722656 134.597656 L 34.902344 130.679688 "/>
<path style=" stroke:none;fill-rule:nonzero;fill:rgb(100%,100%,100%);fill-opacity:1;" d="M 28.25 119.597656 L 35.25 119.597656 L 35.25 130.597656 L 28.25 130.597656 Z M 28.25 119.597656 "/>
<g style="fill:rgb(0%,0%,100%);fill-opacity:1;">
  <use xlink:href="#glyph0-2" x="28.25" y="128.260742"/>
</g>
<path style="fill:none;stroke-width:1.2;stroke-linecap:butt;stroke-linejoin:miter;stroke:rgb(0%,0%,100%);stroke-opacity:1;stroke-miterlimit:10;" d="M 170.851562 171.835938 L 179.980469 165.816406 "/>
<path style="fill:none;stroke-width:1.2;stroke-linecap:butt;stroke-linejoin:miter;stroke:rgb(0%,0%,0%);stroke-opacity:1;stroke-miterlimit:10;" d="M 179.980469 165.816406 L 189.113281 159.796875 "/>
<path style=" stroke:none;fill-rule:nonzero;fill:rgb(100%,100%,100%);fill-opacity:1;" d="M 163.851562 166.335938 L 177.851562 166.335938 L 177.851562 177.335938 L 163.851562 177.335938 Z M 163.851562 166.335938 "/>
<g style="fill:rgb(0%,0%,100%);fill-opacity:1;">
  <use xlink:href="#glyph0-2" x="163.851562" y="174.999023"/>
  <use xlink:href="#glyph0-3" x="170.829102" y="174.999023"/>
</g>
<path style="fill:none;stroke-width:1.2;stroke-linecap:butt;stroke-linejoin:miter;stroke:rgb(0%,0%,0%);stroke-opacity:1;stroke-miterlimit:10;" d="M 189.113281 159.796875 L 208.667969 169.59375 "/>
<path style="fill:none;stroke-width:1.2;stroke-linecap:butt;stroke-linejoin:miter;stroke:rgb(0%,0%,0%);stroke-opacity:1;stroke-miterlimit:10;" d="M 193.375 156.175781 L 209.019531 164.011719 "/>
<path style="fill:none;stroke-width:1.2;stroke-linecap:butt;stroke-linejoin:miter;stroke:rgb(0%,0%,100%);stroke-opacity:1;stroke-miterlimit:10;" d="M 187.820312 137.960938 L 188.464844 148.878906 "/>
<path style="fill:none;stroke-width:1.2;stroke-linecap:butt;stroke-linejoin:miter;stroke:rgb(0%,0%,0%);stroke-opacity:1;stroke-miterlimit:10;" d="M 188.464844 148.878906 L 189.113281 159.796875 "/>
<path style="fill:none;stroke-width:1.2;stroke-linecap:butt;stroke-linejoin:miter;stroke:rgb(0%,0%,0%);stroke-opacity:1;stroke-miterlimit:10;" d="M 208.667969 169.59375 L 226.929688 157.554688 "/>
<path style="fill:none;stroke-width:1.2;stroke-linecap:butt;stroke-linejoin:miter;stroke:rgb(0%,0%,0%);stroke-opacity:1;stroke-miterlimit:10;" d="M 226.929688 157.554688 L 246.488281 167.347656 "/>
<path style="fill:none;stroke-width:1.2;stroke-linecap:butt;stroke-linejoin:miter;stroke:rgb(0%,0%,0%);stroke-opacity:1;stroke-miterlimit:10;" d="M 231.191406 153.929688 L 246.835938 161.769531 "/>
<path style="fill:none;stroke-width:1.2;stroke-linecap:butt;stroke-linejoin:miter;stroke:rgb(0%,0%,0%);stroke-opacity:1;stroke-miterlimit:10;" d="M 225.636719 135.71875 L 226.929688 157.554688 "/>
<path style="fill:none;stroke-width:1.2;stroke-linecap:butt;stroke-linejoin:miter;stroke:rgb(0%,0%,0%);stroke-opacity:1;stroke-miterlimit:10;" d="M 246.488281 167.347656 L 264.75 155.3125 "/>
<path style="fill:none;stroke-width:1.2;stroke-linecap:butt;stroke-linejoin:miter;stroke:rgb(0%,0%,0%);stroke-opacity:1;stroke-miterlimit:10;" d="M 264.75 155.3125 L 263.457031 133.476562 "/>
<path style="fill:none;stroke-width:1.2;stroke-linecap:butt;stroke-linejoin:miter;stroke:rgb(0%,0%,0%);stroke-opacity:1;stroke-miterlimit:10;" d="M 259.484375 153.433594 L 258.445312 135.964844 "/>
<path style="fill:none;stroke-width:1.2;stroke-linecap:butt;stroke-linejoin:miter;stroke:rgb(0%,0%,0%);stroke-opacity:1;stroke-miterlimit:10;" d="M 263.457031 133.476562 L 243.898438 123.679688 "/>
<path style="fill:none;stroke-width:1.2;stroke-linecap:butt;stroke-linejoin:miter;stroke:rgb(0%,0%,0%);stroke-opacity:1;stroke-miterlimit:10;" d="M 243.898438 123.679688 L 225.636719 135.71875 "/>
<path style="fill:none;stroke-width:1.2;stroke-linecap:butt;stroke-linejoin:miter;stroke:rgb(0%,0%,0%);stroke-opacity:1;stroke-miterlimit:10;" d="M 244.90625 129.179688 L 230.296875 138.8125 "/>
<path style="fill:none;stroke-width:1.2;stroke-linecap:butt;stroke-linejoin:miter;stroke:rgb(0%,0%,0%);stroke-opacity:1;stroke-miterlimit:10;" d="M 225.636719 135.71875 L 206.082031 125.921875 "/>
<path style="fill:none;stroke-width:1.2;stroke-linecap:butt;stroke-linejoin:miter;stroke:rgb(0%,0%,0%);stroke-opacity:1;stroke-miterlimit:10;" d="M 206.082031 125.921875 L 196.949219 131.941406 "/>
<path style="fill:none;stroke-width:1.2;stroke-linecap:butt;stroke-linejoin:miter;stroke:rgb(0%,0%,100%);stroke-opacity:1;stroke-miterlimit:10;" d="M 196.949219 131.941406 L 187.820312 137.960938 "/>
<path style="fill:none;stroke-width:1.2;stroke-linecap:butt;stroke-linejoin:miter;stroke:rgb(0%,0%,0%);stroke-opacity:1;stroke-miterlimit:10;" d="M 207.085938 131.421875 L 199.78125 136.238281 "/>
<path style="fill:none;stroke-width:1.2;stroke-linecap:butt;stroke-linejoin:miter;stroke:rgb(0%,0%,100%);stroke-opacity:1;stroke-miterlimit:10;" d="M 199.78125 136.238281 L 192.476562 141.054688 "/>
<path style=" stroke:none;fill-rule:nonzero;fill:rgb(100%,100%,100%);fill-opacity:1;" d="M 184.820312 132.460938 L 191.820312 132.460938 L 191.820312 143.460938 L 184.820312 143.460938 Z M 184.820312 132.460938 "/>
<g style="fill:rgb(0%,0%,100%);fill-opacity:1;">
  <use xlink:href="#glyph0-2" x="184.820312" y="141.124023"/>
</g>
</g>
</svg>

<svg xmlns="http://www.w3.org/2000/svg" xmlns:xlink="http://www.w3.org/1999/xlink" width="300pt" height="300pt" viewBox="0 0 300 300"><defs><symbol overflow="visible"><path d="M.453 1.594v-7.938h4.5v7.938zm.5-.5h3.5v-6.938h-3.5zm0 0"/></symbol><symbol overflow="visible" id="a"><path d="M3.547-5.953c-.65 0-1.164.242-1.547.72-.375.48-.563 1.13-.563 1.952 0 .835.188 1.49.563 1.967.383.48.898.72 1.547.72.644 0 1.156-.24 1.53-.72.376-.476.564-1.132.564-1.968 0-.822-.187-1.474-.562-1.954-.375-.477-.887-.72-1.53-.72zm0-.734c.914 0 1.648.312 2.203.937.55.617.828 1.438.828 2.47 0 1.042-.277 1.87-.828 2.483-.555.617-1.29.922-2.203.922-.93 0-1.668-.305-2.22-.922C.774-1.41.5-2.237.5-3.28c0-1.033.273-1.853.828-2.47.55-.625 1.29-.938 2.22-.938zm0 0"/></symbol><symbol overflow="visible" id="b"><path d="M.89-6.563H2.08l2.906 5.485v-5.484h.86V0H4.656L1.75-5.484V0H.89zm0 0"/></symbol><symbol overflow="visible" id="c"><path d="M.89-6.563h.876v2.688H5v-2.688h.89V0H5v-3.125H1.766V0H.89zm0 0"/></symbol></defs><g><path fill="#fff" d="M0 0h300v300H0z"/><path d="M147.43 140.355l.648 10.918" stroke-width="1.2" stroke="#f00" stroke-miterlimit="10" fill="none"/><path d="M148.078 151.273l.65 10.918" stroke-width="1.2" stroke="#000" stroke-miterlimit="10" fill="none"/><path d="M152.57 140.05l.645 10.92" stroke-width="1.2" stroke="#f00" stroke-miterlimit="10" fill="none"/><path d="M153.215 150.97l.648 10.917" stroke-width="1.2" stroke="#000" stroke-miterlimit="10" fill="none"/><path d="M146 134.703h8v11h-8zm0 0" fill="#fff"/><use xlink:href="#a" x="146" y="143.366" fill="#f00"/><path d="M151.293 162.04l-9.13 6.02" stroke-width="1.2" stroke="#000" stroke-miterlimit="10" fill="none"/><path d="M142.164 168.06l-9.133 6.018" stroke-width="1.2" stroke="#00f" stroke-miterlimit="10" fill="none"/><path d="M151.293 162.04l9.78 4.898" stroke-width="1.2" stroke="#000" stroke-miterlimit="10" fill="none"/><path d="M161.074 166.938l9.778 4.898M133.03 174.078l-9.776-4.898" stroke-width="1.2" stroke="#00f" stroke-miterlimit="10" fill="none"/><path d="M123.254 169.18l-9.777-4.9" stroke-width="1.2" stroke="#000" stroke-miterlimit="10" fill="none"/><path d="M126.03 168.578h14v11h-14zm0 0" fill="#fff"/><g fill="#00f"><use xlink:href="#b" x="126.031" y="177.241"/><use xlink:href="#c" x="133.009" y="177.241"/></g><path d="M113.477 164.28l-1.297-21.835M108.21 162.402l-1.038-17.468" stroke-width="1.2" stroke="#000" stroke-miterlimit="10" fill="none"/><path d="M95.215 176.32l9.13-6.02" stroke-width="1.2" stroke="#00f" stroke-miterlimit="10" fill="none"/><path d="M104.344 170.3l9.133-6.02M112.18 142.445l-9.778-4.898" stroke-width="1.2" stroke="#000" stroke-miterlimit="10" fill="none"/><path d="M102.402 137.547l-9.777-4.895M92.625 132.652l-9.133 6.016" stroke-width="1.2" stroke="#00f" stroke-miterlimit="10" fill="none"/><path d="M83.492 138.668l-9.13 6.02" stroke-width="1.2" stroke="#000" stroke-miterlimit="10" fill="none"/><path d="M93.633 138.152l-7.305 4.813" stroke-width="1.2" stroke="#00f" stroke-miterlimit="10" fill="none"/><path d="M86.328 142.965l-7.305 4.816" stroke-width="1.2" stroke="#000" stroke-miterlimit="10" fill="none"/><path d="M89.625 127.152h7v11h-7zm0 0" fill="#fff"/><use xlink:href="#b" x="89.625" y="135.815" fill="#00f"/><path d="M74.363 144.688l1.293 21.835M74.363 144.688l-19.558-9.793M75.656 166.523l9.78 4.9" stroke-width="1.2" stroke="#000" stroke-miterlimit="10" fill="none"/><path d="M85.438 171.422l9.777 4.898" stroke-width="1.2" stroke="#00f" stroke-miterlimit="10" fill="none"/><path d="M79.918 162.902l7.824 3.918" stroke-width="1.2" stroke="#000" stroke-miterlimit="10" fill="none"/><path d="M87.742 166.82l7.82 3.918" stroke-width="1.2" stroke="#00f" stroke-miterlimit="10" fill="none"/><path d="M92.215 170.82h7v11h-7zm0 0" fill="#fff"/><use xlink:href="#b" x="92.215" y="179.483" fill="#00f"/><path d="M54.805 134.895l-9.778-4.9" stroke-width="1.2" stroke="#000" stroke-miterlimit="10" fill="none"/><path d="M45.027 129.996l-9.777-4.898" stroke-width="1.2" stroke="#00f" stroke-miterlimit="10" fill="none"/><path d="M55.156 129.313l-7.824-3.918" stroke-width="1.2" stroke="#000" stroke-miterlimit="10" fill="none"/><path d="M47.332 125.395l-7.82-3.918" stroke-width="1.2" stroke="#00f" stroke-miterlimit="10" fill="none"/><path d="M50.547 138.516l-7.824-3.918" stroke-width="1.2" stroke="#000" stroke-miterlimit="10" fill="none"/><path d="M42.723 134.598l-7.82-3.918" stroke-width="1.2" stroke="#00f" stroke-miterlimit="10" fill="none"/><path d="M28.25 119.598h7v11h-7zm0 0" fill="#fff"/><use xlink:href="#b" x="28.25" y="128.261" fill="#00f"/><path d="M170.852 171.836l9.128-6.02" stroke-width="1.2" stroke="#00f" stroke-miterlimit="10" fill="none"/><path d="M179.98 165.816l9.133-6.02" stroke-width="1.2" stroke="#000" stroke-miterlimit="10" fill="none"/><path d="M163.852 166.336h14v11h-14zm0 0" fill="#fff"/><g fill="#00f"><use xlink:href="#b" x="163.852" y="174.999"/><use xlink:href="#c" x="170.829" y="174.999"/></g><path d="M189.113 159.797l19.555 9.797M193.375 156.176l15.645 7.836" stroke-width="1.2" stroke="#000" stroke-miterlimit="10" fill="none"/><path d="M187.82 137.96l.645 10.92" stroke-width="1.2" stroke="#00f" stroke-miterlimit="10" fill="none"/><path d="M188.465 148.88l.648 10.917M208.668 169.594l18.262-12.04M226.93 157.555l19.558 9.793M231.19 153.93l15.646 7.84M225.637 135.72l1.293 21.835M246.488 167.348l18.262-12.036M264.75 155.313l-1.293-21.836M259.484 153.434l-1.04-17.47M263.457 133.477l-19.56-9.797M243.898 123.68l-18.26 12.04M244.906 129.18l-14.61 9.632M225.637 135.72l-19.555-9.798M206.082 125.922l-9.133 6.02" stroke-width="1.2" stroke="#000" stroke-miterlimit="10" fill="none"/><path d="M196.95 131.94l-9.13 6.02" stroke-width="1.2" stroke="#00f" stroke-miterlimit="10" fill="none"/><path d="M207.086 131.422l-7.305 4.816" stroke-width="1.2" stroke="#000" stroke-miterlimit="10" fill="none"/><path d="M199.78 136.238l-7.303 4.817" stroke-width="1.2" stroke="#00f" stroke-miterlimit="10" fill="none"/><path d="M184.82 132.46h7v11h-7zm0 0" fill="#fff"/><use xlink:href="#b" x="184.82" y="141.124" fill="#00f"/></g></svg>
